icons/1_Primary/Hyper Expert.svg

<svg width="1024" height="1024" viewBox="0 0 1024 1024" fill="none" xmlns="http://www.w3.org/2000/svg">
<g clip-path="url(#clip0_2_2469)">
<path d="M512 1024C794.77 1024 1024 794.77 1024 512C1024 229.23 794.77 0 512 0C229.23 0 0 229.23 0 512C0 794.77 229.23 1024 512 1024Z" fill="#9ABEFF"/>
<path d="M425.59 342.61H427.13V342.52C426.58 342.55 426.08 342.61 425.59 342.61ZM733.53 388C718.64 346.81 678.53 319.24 633.53 319.26C631.8 319.26 630.16 319.26 628.53 319.33C618.412 307.723 605.914 298.43 591.886 292.082C577.858 285.734 562.628 282.48 547.23 282.54C543.62 282.54 429.64 283.26 429.64 283.26C412.75 283.26 399.05 296.51 399.04 312.89C399.03 329.27 412.71 342.55 429.6 342.56H533.83C535.264 342.409 536.713 342.55 538.091 342.974C539.468 343.399 540.746 344.098 541.845 345.03C542.945 345.962 543.845 347.107 544.49 348.396C545.135 349.685 545.513 351.091 545.599 352.53C545.686 353.969 545.48 355.411 544.994 356.768C544.508 358.125 543.752 359.37 542.772 360.427C541.791 361.484 540.607 362.331 539.29 362.918C537.973 363.504 536.551 363.818 535.11 363.84C534.684 363.864 534.256 363.864 533.83 363.84C533.83 363.84 516.26 364.25 515.73 364.25H478.54C461.65 364.25 447.96 377.52 447.96 393.9C447.96 410.28 461.65 423.55 478.54 423.55H583.94C584.46 423.55 584.94 423.5 585.47 423.49L591.76 423.6C593.196 423.538 594.63 423.767 595.975 424.273C597.32 424.78 598.549 425.554 599.587 426.548C600.625 427.542 601.452 428.736 602.016 430.058C602.58 431.38 602.871 432.802 602.871 434.24C602.871 435.677 602.58 437.1 602.016 438.422C601.452 439.744 600.625 440.938 599.587 441.932C598.549 442.926 597.32 443.7 595.975 444.206C594.63 444.713 593.196 444.942 591.76 444.88C591.76 444.88 584.44 445.31 583.95 445.31H357.88C340.99 445.6 327.54 459.1 327.88 475.47C328.17 491.47 341.45 504.32 357.88 504.6H497.88C500.71 504.451 503.483 505.433 505.589 507.329C507.695 509.225 508.961 511.88 509.11 514.71C509.259 517.54 508.277 520.313 506.381 522.419C504.485 524.525 501.83 525.791 499 525.94H497.89L491.59 526.42C491.09 526.42 490.59 526.34 490.05 526.34H319.22C302.33 526.34 288.65 539.61 288.65 555.98C288.65 572.35 302.34 585.62 319.22 585.62H553C553.53 585.62 554 585.62 554.54 585.56L560.83 585.67C562.255 585.626 563.675 585.869 565.005 586.385C566.334 586.9 567.547 587.677 568.571 588.67C569.594 589.662 570.408 590.851 570.964 592.164C571.52 593.477 571.806 594.889 571.806 596.315C571.806 597.741 571.52 599.152 570.964 600.466C570.408 601.779 569.594 602.967 568.571 603.96C567.547 604.953 566.334 605.73 565.005 606.245C563.675 606.761 562.255 607.004 560.83 606.96L515.83 607.38H493.83C476.94 607.38 463.25 620.66 463.25 637.03C463.25 653.4 476.94 666.68 493.83 666.68H535C535.81 666.68 536.63 666.61 537.48 666.54C579.1 694.92 620.99 723.54 620.99 723.54C620.99 723.54 652.82 746.96 668.7 740.1C668.7 740.1 690.7 733.15 684 706.1C683.74 704.91 677.32 678.4 672.62 655.5C671.62 650.5 671.68 641.68 682.54 639.3C723.02 629.81 754.01 598.21 761.77 558.54C805.32 520.66 808.95 455.72 769.89 413.54C759.716 402.551 747.327 393.846 733.54 388V388.05L733.53 388ZM305.07 475C305.07 458.63 291.38 445.36 274.5 445.35H257.58C240.69 445.39 227 458.67 227 475C227 491.33 240.69 504.65 257.58 504.65H274.53C291.41 504.68 305.08 491.41 305.07 475ZM324.93 423.6H400.66C417.55 423.6 431.25 410.35 431.26 393.97C431.27 377.59 417.59 364.31 400.7 364.3H325C308.11 364.3 294.42 377.57 294.42 393.95C294.42 410.33 308.11 423.6 325 423.6H324.93ZM409.31 607.4H396.53C379.64 607.4 365.95 620.68 365.95 637.05C365.95 653.42 379.64 666.7 396.53 666.7H409.3C426.19 666.7 439.88 653.42 439.88 637.05C439.88 620.68 426.2 607.44 409.3 607.44L409.31 607.4Z" fill="white"/>
</g>
<defs>
<clipPath id="clip0_2_2469">
<rect width="1024" height="1024" fill="white"/>
</clipPath>
</defs>
</svg>

<svg xmlns="http://www.w3.org/2000/svg" viewBox="0 0 1024 1024">
   <circle cx="512" cy="512" r="512" style="fill:#38b6ff"/>
   <path d="M425.59 342.61h1.54v-.09c-.55.03-1.05.09-1.54.09ZM733.53 388c-14.89-41.19-55-68.76-100-68.74-1.73 0-3.37 0-5 .07a107.3 107.3 0 0 0-81.3-36.79c-3.61 0-117.59.72-117.59.72-16.89 0-30.59 13.25-30.6 29.63s13.67 29.66 30.56 29.67h104.23a10.67 10.67 0 1 1 1.28 21.28 11.32 11.32 0 0 1-1.28 0s-17.57.41-18.1.41h-37.19c-16.89 0-30.58 13.27-30.58 29.65s13.69 29.65 30.58 29.65h105.4c.52 0 1-.05 1.53-.06l6.29.11a10.65 10.65 0 1 1 0 21.28s-7.32.43-7.81.43H357.88c-16.89.29-30.34 13.79-30 30.16.29 16 13.57 28.85 30 29.13h140a10.67 10.67 0 1 1 1.12 21.34h-1.11l-6.3.48c-.5 0-1-.08-1.54-.08H319.22c-16.89 0-30.57 13.27-30.57 29.64s13.69 29.64 30.57 29.64H553c.53 0 1 0 1.54-.06l6.29.11a10.65 10.65 0 1 1 0 21.29l-45 .42h-22c-16.89 0-30.58 13.28-30.58 29.65s13.69 29.65 30.58 29.65H535c.81 0 1.63-.07 2.48-.14 41.62 28.38 83.51 57 83.51 57s31.83 23.42 47.71 16.56c0 0 22-6.95 15.3-34-.26-1.19-6.68-27.7-11.38-50.6-1-5-.94-13.82 9.92-16.2 40.48-9.49 71.47-41.09 79.23-80.76 43.55-37.88 47.18-102.82 8.12-145A105.86 105.86 0 0 0 733.54 388v.05Zm-428.46 87c0-16.37-13.69-29.64-30.57-29.65h-16.92C240.69 445.39 227 458.67 227 475s13.69 29.65 30.58 29.65h16.95c16.88.03 30.55-13.24 30.54-29.65Zm19.86-51.4h75.73c16.89 0 30.59-13.25 30.6-29.63s-13.67-29.66-30.56-29.67H325c-16.89 0-30.58 13.27-30.58 29.65S308.11 423.6 325 423.6Zm84.38 183.8h-12.78c-16.89 0-30.58 13.28-30.58 29.65s13.69 29.65 30.58 29.65h12.77c16.89 0 30.58-13.28 30.58-29.65s-13.68-29.61-30.58-29.61Z" style="fill:#fff"/>
</svg>
